Yaru++/actions/symbolic/view-paged-symbolic.svg

<svg height="16.02" width="16" xmlns="http://www.w3.org/2000/svg"><path d="m.98 0 .02.02-.02 13h1.02v-12h11l.012-1.02-12.012.02zm2.024 2.02v13h11.996v-13h-11.496zm1.002 1h9.994v11h-9.994zm1.994 2v1h6.02v-1zm0 2v1h6.02v-1zm-.008 2v1h3.008v-1z" fill="#808080"/></svg>

<svg height="16.02" width="16" xmlns="http://www.w3.org/2000/svg">
    <path d="M.98 0L1 .02l-.02 13H2v-12h11L13.012 0 1 .02zm2.024 2.02v13H15v-13H3.504zm1.002 1H14v11H4.006zM6 5.02v1h6.02v-1zm0 2v1h6.02v-1zm-.008 2v1H9v-1z" style="marker:none" color="#000" overflow="visible" fill="gray"/>
</svg>
